X: 29
T:Tone Rowe's
M:6/8
L:1/8
Q:120
S:THSP
C:Brendan Tonra
R:jig
K:D
"D"~F3 AFE|EDB, A,B,D|FEF "G"GFG|"A"ABG AFE|
"D"~F3 AFE|EDB, A,B,D|FEF "G"GFG|1 "A"BAF"D"D2E:|2 "A"BAF "D"D2g||:
"D"f2d dcd|"G"edc "A"Bcd|"D"f2d dcd|"A"ABG A2g|
"D"f2d dcd|"G"edc "A"Bcd|"D"(3fga f "G"gec|1 "A"edc "D"d2g:|2 "A"edc "D"
d2E|]
